Newaita-dark/apps/scalable/google-play-music-desktop-player.svg

<?xml version="1.0" encoding="UTF-8"?>
<svg xmlns="http://www.w3.org/2000/svg" xmlns:xlink="http://www.w3.org/1999/xlink" width="512pt" height="512pt" viewBox="0 0 512 512" version="1.1">
<defs>
<radialGradient id="radial0" gradientUnits="userSpaceOnUse" cx="450.908936" cy="189.579361" fx="450.908936" fy="189.579361" r="21.166656" gradientTransform="matrix(0.00000278673,-1.250119,-2.250215,-0.00000162462,712.37043,1017.52527)">
<stop offset="0" style="stop-color:rgb(0%,0%,0%);stop-opacity:0.313725;"/>
<stop offset="0.222222" style="stop-color:rgb(0%,0%,0%);stop-opacity:0.27451;"/>
<stop offset="1" style="stop-color:rgb(0%,0%,0%);stop-opacity:0;"/>
</radialGradient>
<radialGradient id="radial1" gradientUnits="userSpaceOnUse" cx="450.908936" cy="189.579361" fx="450.908936" fy="189.579361" r="21.166656" gradientTransform="matrix(-0.00000278673,1.250119,2.250215,0.00000162462,-204.321898,-120.439713)">
<stop offset="0" style="stop-color:rgb(0%,0%,0%);stop-opacity:0.313725;"/>
<stop offset="0.222222" style="stop-color:rgb(0%,0%,0%);stop-opacity:0.27451;"/>
<stop offset="1" style="stop-color:rgb(0%,0%,0%);stop-opacity:0;"/>
</radialGradient>
<radialGradient id="radial2" gradientUnits="userSpaceOnUse" cx="450.908936" cy="189.579361" fx="450.908936" fy="189.579361" r="21.166656" gradientTransform="matrix(-0.00000278673,-1.250119,2.250215,-0.00000162462,-204.321898,1017.52527)">
<stop offset="0" style="stop-color:rgb(0%,0%,0%);stop-opacity:0.313725;"/>
<stop offset="0.222222" style="stop-color:rgb(0%,0%,0%);stop-opacity:0.27451;"/>
<stop offset="1" style="stop-color:rgb(0%,0%,0%);stop-opacity:0;"/>
</radialGradient>
<radialGradient id="radial3" gradientUnits="userSpaceOnUse" cx="450.908936" cy="189.579361" fx="450.908936" fy="189.579361" r="21.166656" gradientTransform="matrix(0.00000278673,1.250119,-2.250215,0.00000162462,712.3704,-120.43972)">
<stop offset="0" style="stop-color:rgb(0%,0%,0%);stop-opacity:0.313725;"/>
<stop offset="0.222222" style="stop-color:rgb(0%,0%,0%);stop-opacity:0.27451;"/>
<stop offset="1" style="stop-color:rgb(0%,0%,0%);stop-opacity:0;"/>
</radialGradient>
<linearGradient id="linear0" gradientUnits="userSpaceOnUse" x1="255.323059" y1="233.5" x2="255.323044" y2="254.666656" gradientTransform="matrix(0.213761,0,0,1.000095,199.446179,215.020539)">
<stop offset="0" style="stop-color:rgb(0%,0%,0%);stop-opacity:0.27451;"/>
<stop offset="1" style="stop-color:rgb(0%,0%,0%);stop-opacity:0;"/>
</linearGradient>
<linearGradient id="linear1" gradientUnits="userSpaceOnUse" x1="254" y1="-168.666672" x2="254" y2="233.5" >
<stop offset="0" style="stop-color:rgb(100%,54.117647%,39.607843%);stop-opacity:1;"/>
<stop offset="1" style="stop-color:rgb(100%,43.921569%,26.27451%);stop-opacity:1;"/>
</linearGradient>
<linearGradient id="linear2" gradientUnits="userSpaceOnUse" x1="254" y1="-168.666672" x2="254" y2="233.5" gradientTransform="matrix(0.684211,0,0,0.684211,80.210503,10.236849)">
<stop offset="0" style="stop-color:rgb(100%,83.529412%,30.980392%);stop-opacity:1;"/>
<stop offset="1" style="stop-color:rgb(100%,79.215686%,15.686275%);stop-opacity:1;"/>
</linearGradient>
<linearGradient id="linear3" gradientUnits="userSpaceOnUse" x1="254" y1="85.333336" x2="254" y2="-94.583336" gradientTransform="matrix(1,0,0,1,-11.906255,41.904667)">
<stop offset="0" style="stop-color:rgb(87.843137%,87.843137%,87.843137%);stop-opacity:1;"/>
<stop offset="1" style="stop-color:rgb(98.039216%,98.039216%,98.039216%);stop-opacity:1;"/>
</linearGradient>
</defs>
<g id="surface1">
<path style=" stroke:none;fill-rule:nonzero;fill:url(#radial0);" d="M 291.070312 448.542969 L 333.40625 448.542969 L 333.40625 427.375 L 291.070312 427.375 Z M 291.070312 448.542969 "/>
<path style=" stroke:none;fill-rule:nonzero;fill:url(#radial1);" d="M 216.980469 448.542969 L 174.640625 448.542969 L 174.640625 469.710938 L 216.980469 469.710938 Z M 216.980469 448.542969 "/>
<path style=" stroke:none;fill-rule:nonzero;fill:url(#radial2);" d="M 216.980469 448.542969 L 174.640625 448.542969 L 174.640625 427.375 L 216.980469 427.375 Z M 216.980469 448.542969 "/>
<path style=" stroke:none;fill-rule:nonzero;fill:url(#radial3);" d="M 291.070312 448.542969 L 333.40625 448.542969 L 333.40625 469.710938 L 291.070312 469.710938 Z M 291.070312 448.542969 "/>
<path style=" stroke:none;fill-rule:nonzero;fill:url(#linear0);" d="M 216.980469 443.25 L 291.070312 443.25 L 291.070312 469.710938 L 216.980469 469.710938 Z M 216.980469 443.25 "/>
<path style="fill-rule:nonzero;fill:url(#linear1);stroke-width:3;stroke-linecap:round;stroke-linejoin:miter;stroke:rgb(20%,20%,20%);stroke-opacity:1;stroke-miterlimit:4;" d="M 253.999182 -168.668487 C 365.054983 -168.668487 455.081542 -78.638022 455.081542 32.417779 C 455.081542 143.47358 365.054983 233.500139 253.999182 233.500139 C 142.943381 233.500139 52.916822 143.47358 52.916822 32.417779 C 52.916822 -78.638022 142.943381 -168.668487 253.999182 -168.668487 Z M 253.999182 -168.668487 " transform="matrix(1.000095,0,0,1.000095,0,215.020531)"/>
<path style=" stroke:none;fill-rule:nonzero;fill:rgb(0%,0%,0%);fill-opacity:0.196078;" d="M 254.023438 448.542969 C 142.613281 448.542969 52.921875 358.851562 52.921875 247.441406 C 52.921875 246.78125 52.929688 246.125 52.933594 245.472656 C 53.984375 355.964844 143.269531 444.605469 254.023438 444.605469 C 364.777344 444.605469 454.0625 355.964844 455.113281 245.472656 C 455.121094 246.125 455.125 246.78125 455.125 247.441406 C 455.125 358.851562 365.433594 448.542969 254.023438 448.542969 Z M 254.023438 448.542969 "/>
<path style=" stroke:none;fill-rule:nonzero;fill:rgb(100%,100%,100%);fill-opacity:0.392157;" d="M 254.023438 46.335938 C 142.613281 46.335938 52.921875 136.027344 52.921875 247.441406 C 52.921875 248.097656 52.929688 248.753906 52.933594 249.410156 C 53.984375 138.914062 143.269531 50.277344 254.023438 50.277344 C 364.777344 50.277344 454.0625 138.914062 455.113281 249.410156 C 455.121094 248.753906 455.125 248.097656 455.125 247.441406 C 455.125 136.027344 365.433594 46.335938 254.023438 46.335938 Z M 254.023438 46.335938 "/>
<path style=" stroke:none;fill-rule:nonzero;fill:rgb(12.941177%,12.941177%,12.941177%);fill-opacity:1;" d="M 254.023438 44.839844 C 141.808594 44.839844 51.421875 135.222656 51.421875 247.441406 C 51.421875 359.65625 141.808594 450.042969 254.023438 450.042969 C 366.238281 450.042969 456.628906 359.65625 456.628906 247.441406 C 456.628906 135.222656 366.238281 44.839844 254.023438 44.839844 Z M 254.023438 47.839844 C 364.628906 47.839844 453.628906 136.832031 453.628906 247.441406 C 453.628906 358.046875 364.628906 447.042969 254.023438 447.042969 C 143.417969 447.042969 54.421875 358.046875 54.421875 247.441406 C 54.421875 136.832031 143.417969 47.839844 254.023438 47.839844 Z M 254.023438 47.839844 "/>
<path style="fill-rule:nonzero;fill:url(#linear2);stroke-width:3;stroke-linecap:round;stroke-linejoin:miter;stroke:rgb(20%,20%,20%);stroke-opacity:1;stroke-miterlimit:4;" d="M 253.999182 -105.166739 C 329.984113 -105.166739 391.583699 -43.567152 391.583699 32.417779 C 391.583699 108.40271 329.984113 169.998391 253.999182 169.998391 C 178.01425 169.998391 116.41857 108.40271 116.41857 32.417779 C 116.41857 -43.567152 178.01425 -105.166739 253.999182 -105.166739 Z M 253.999182 -105.166739 " transform="matrix(1.000095,0,0,1.000095,0,215.020531)"/>
<path style="fill-rule:nonzero;fill:url(#linear3);stroke-width:3;stroke-linecap:round;stroke-linejoin:miter;stroke:rgb(80.000001%,80.000001%,80.000001%);stroke-opacity:1;stroke-miterlimit:4;" d="M 210.343194 -53.10921 C 198.617752 -53.10921 189.177247 -43.668705 189.177247 -31.939356 L 189.177247 106.035749 C 189.177247 117.761192 198.617752 127.201696 210.343194 127.201696 C 220.928121 127.236849 307.357368 69.269729 355.864454 39.924875 C 363.801196 34.632411 363.801196 29.343854 355.864454 24.05139 C 307.357368 -1.66881 226.220585 -52.679563 210.343194 -53.10921 Z M 210.343194 -53.10921 " transform="matrix(1.000095,0,0,1.000095,0,215.020531)"/>
<path style=" stroke:none;fill-rule:nonzero;fill:rgb(0%,0%,0%);fill-opacity:0.196078;" d="M 361.726562 244.03125 C 360.914062 245.917969 359.097656 247.804688 356.269531 249.691406 C 307.757812 279.039062 221.316406 337.011719 210.734375 336.976562 C 199.007812 336.976562 189.566406 327.539062 189.566406 315.808594 L 189.566406 320.363281 C 189.566406 332.09375 199.007812 341.53125 210.734375 341.53125 C 221.316406 341.566406 307.757812 283.59375 356.269531 254.246094 C 361.375 250.84375 363.191406 247.4375 361.726562 244.03125 Z M 361.726562 244.03125 "/>
<path style=" stroke:none;fill-rule:nonzero;fill:rgb(100%,100%,100%);fill-opacity:0.701961;" d="M 210.363281 161.90625 C 198.636719 161.90625 189.195312 171.347656 189.195312 183.078125 L 189.195312 187.472656 C 189.195312 175.746094 198.636719 166.304688 210.363281 166.304688 C 226.242188 166.734375 307.386719 217.75 355.898438 243.472656 C 358.769531 245.382812 360.59375 247.296875 361.390625 249.210938 C 362.792969 245.832031 360.96875 242.453125 355.898438 239.074219 C 307.386719 213.351562 226.242188 162.335938 210.363281 161.90625 Z M 210.363281 161.90625 "/>
<path style=" stroke:none;fill-rule:nonzero;fill:rgb(12.941177%,12.941177%,12.941177%);fill-opacity:1;" d="M 210.363281 160.410156 C 197.832031 160.410156 187.695312 170.542969 187.695312 183.078125 L 187.695312 321.066406 C 187.695312 333.597656 197.828125 343.734375 210.359375 343.734375 C 212.371094 343.742188 214.777344 342.722656 218.308594 341.054688 C 221.839844 339.386719 226.296875 336.996094 231.488281 334.042969 C 241.875 328.132812 255.199219 319.96875 269.703125 310.882812 C 298.714844 292.71875 332.457031 270.886719 356.675781 256.234375 L 356.703125 256.214844 L 356.730469 256.199219 C 360.890625 253.425781 363.351562 250.410156 363.351562 247.011719 C 363.351562 243.617188 360.890625 240.601562 356.730469 237.824219 L 356.667969 237.78125 L 356.601562 237.746094 C 332.402344 224.917969 299.988281 205.734375 271.632812 189.699219 C 257.453125 181.683594 244.289062 174.453125 233.644531 169.183594 C 228.320312 166.550781 223.628906 164.40625 219.730469 162.894531 C 215.828125 161.378906 212.773438 160.472656 210.402344 160.40625 L 210.382812 160.40625 Z M 210.335938 163.410156 C 211.941406 163.457031 214.886719 164.234375 218.644531 165.691406 C 222.40625 167.148438 227.039062 169.265625 232.3125 171.875 C 242.863281 177.09375 255.996094 184.304688 270.15625 192.3125 C 298.429688 208.300781 330.773438 227.441406 355.074219 240.328125 C 358.84375 242.84375 360.351562 245.117188 360.351562 247.011719 C 360.351562 248.910156 358.84375 251.183594 355.066406 253.703125 C 330.777344 268.398438 297.074219 290.203125 268.113281 308.339844 C 253.621094 317.414062 240.316406 325.566406 230.003906 331.433594 C 224.847656 334.367188 220.4375 336.734375 217.023438 338.34375 C 213.613281 339.953125 211.003906 340.738281 210.367188 340.734375 L 210.363281 340.734375 C 199.441406 340.734375 190.695312 331.988281 190.695312 321.066406 L 190.695312 183.078125 C 190.695312 172.164062 199.429688 163.425781 210.335938 163.410156 Z M 210.335938 163.410156 "/>
</g>
</svg>

<svg xmlns="http://www.w3.org/2000/svg" width="512pt" height="512pt" viewBox="0 0 512 512"><defs><radialGradient id="a" gradientUnits="userSpaceOnUse" cx="450.909" cy="189.579" fx="450.909" fy="189.579" r="21.167" gradientTransform="matrix(0 -1.25012 -2.25021 0 712.37 1017.525)"><stop offset="0" stop-opacity=".314"/><stop offset=".222" stop-opacity=".275"/><stop offset="1" stop-opacity="0"/></radialGradient><radialGradient id="b" gradientUnits="userSpaceOnUse" cx="450.909" cy="189.579" fx="450.909" fy="189.579" r="21.167" gradientTransform="matrix(0 1.25012 2.25021 0 -204.322 -120.44)"><stop offset="0" stop-opacity=".314"/><stop offset=".222" stop-opacity=".275"/><stop offset="1" stop-opacity="0"/></radialGradient><radialGradient id="c" gradientUnits="userSpaceOnUse" cx="450.909" cy="189.579" fx="450.909" fy="189.579" r="21.167" gradientTransform="matrix(0 -1.25012 2.25021 0 -204.322 1017.525)"><stop offset="0" stop-opacity=".314"/><stop offset=".222" stop-opacity=".275"/><stop offset="1" stop-opacity="0"/></radialGradient><radialGradient id="d" gradientUnits="userSpaceOnUse" cx="450.909" cy="189.579" fx="450.909" fy="189.579" r="21.167" gradientTransform="matrix(0 1.25012 -2.25021 0 712.37 -120.44)"><stop offset="0" stop-opacity=".314"/><stop offset=".222" stop-opacity=".275"/><stop offset="1" stop-opacity="0"/></radialGradient><linearGradient id="e" gradientUnits="userSpaceOnUse" x1="255.323" y1="233.5" x2="255.323" y2="254.667" gradientTransform="matrix(.21376 0 0 1.0001 199.446 215.02)"><stop offset="0" stop-opacity=".275"/><stop offset="1" stop-opacity="0"/></linearGradient><linearGradient id="f" gradientUnits="userSpaceOnUse" x1="254" y1="-168.667" x2="254" y2="233.5"><stop offset="0" stop-color="#ff8a65"/><stop offset="1" stop-color="#ff7043"/></linearGradient><linearGradient id="g" gradientUnits="userSpaceOnUse" x1="254" y1="-168.667" x2="254" y2="233.5" gradientTransform="translate(80.21 10.237) scale(.68421)"><stop offset="0" stop-color="#ffd54f"/><stop offset="1" stop-color="#ffca28"/></linearGradient><linearGradient id="h" gradientUnits="userSpaceOnUse" x1="254" y1="85.333" x2="254" y2="-94.583" gradientTransform="translate(-11.906 41.905)"><stop offset="0" stop-color="#e0e0e0"/><stop offset="1" stop-color="#fafafa"/></linearGradient></defs><path d="M291.07 448.543h42.336v-21.168H291.07zm0 0" fill="url(#a)"/><path d="M216.98 448.543h-42.34v21.168h42.34zm0 0" fill="url(#b)"/><path d="M216.98 448.543h-42.34v-21.168h42.34zm0 0" fill="url(#c)"/><path d="M291.07 448.543h42.336v21.168H291.07zm0 0" fill="url(#d)"/><path d="M216.98 443.25h74.09v26.46h-74.09zm0 0" fill="url(#e)"/><path d="M254-168.668c111.055 0 201.082 90.03 201.082 201.086 0 111.056-90.027 201.082-201.083 201.082S52.917 143.474 52.917 32.418s90.026-201.086 201.082-201.086zm0 0" transform="matrix(1.0001 0 0 1.0001 0 215.02)" fill="url(#f)" stroke-width="3" stroke-linecap="round" stroke="#333"/><path d="M254.023 448.543c-111.41 0-201.101-89.691-201.101-201.102 0-.66.008-1.316.012-1.968 1.05 110.492 90.336 199.132 201.09 199.132 110.753 0 200.038-88.64 201.09-199.132.007.652.011 1.308.011 1.968 0 111.41-89.691 201.102-201.102 201.102zm0 0" fill-opacity=".196"/><path d="M254.023 46.336c-111.41 0-201.101 89.691-201.101 201.105 0 .657.008 1.313.012 1.97 1.05-110.497 90.336-199.134 201.09-199.134 110.753 0 200.038 88.637 201.09 199.133.007-.656.011-1.312.011-1.969 0-111.414-89.691-201.105-201.102-201.105zm0 0" fill="#fff" fill-opacity=".392"/><path d="M254.023 44.84c-112.214 0-202.601 90.383-202.601 202.601 0 112.215 90.387 202.602 202.601 202.602 112.215 0 202.606-90.387 202.606-202.602 0-112.218-90.39-202.601-202.606-202.601zm0 3c110.606 0 199.606 88.992 199.606 199.601 0 110.606-89 199.602-199.606 199.602-110.605 0-199.601-88.996-199.601-199.602 0-110.609 88.996-199.601 199.601-199.601zm0 0" fill="#212121"/><path d="M254-105.167c75.984 0 137.584 61.6 137.584 137.585 0 75.985-61.6 137.58-137.585 137.58-75.985 0-137.58-61.595-137.58-137.58 0-75.985 61.595-137.585 137.58-137.585zm0 0" transform="matrix(1.0001 0 0 1.0001 0 215.02)" fill="url(#g)" stroke-width="3" stroke-linecap="round" stroke="#333"/><path d="M210.343-53.11a21.121 21.121 0 0 0-21.166 21.17v137.976a21.12 21.12 0 0 0 21.166 21.166c10.585.035 97.014-57.932 145.521-87.277 7.937-5.293 7.937-10.581 0-15.874-48.507-25.72-129.643-76.73-145.52-77.16zm0 0" transform="matrix(1.0001 0 0 1.0001 0 215.02)" fill="url(#h)" stroke-width="3" stroke-linecap="round" stroke="#ccc"/><path d="M361.727 244.031c-.813 1.887-2.63 3.774-5.457 5.66-48.512 29.348-134.954 87.32-145.536 87.286a21.12 21.12 0 0 1-21.168-21.168v4.554a21.12 21.12 0 0 0 21.168 21.168c10.582.035 97.024-57.937 145.536-87.285 5.105-3.402 6.921-6.809 5.457-10.215zm0 0" fill-opacity=".196"/><path d="M210.363 161.906a21.123 21.123 0 0 0-21.168 21.172v4.395a21.122 21.122 0 0 1 21.168-21.168c15.88.43 97.024 51.445 145.535 77.168 2.872 1.91 4.696 3.824 5.493 5.738 1.402-3.379-.422-6.758-5.493-10.137-48.511-25.722-129.656-76.738-145.535-77.168zm0 0" fill="#fff" fill-opacity=".702"/><path d="M210.363 160.41c-12.531 0-22.668 10.133-22.668 22.668v137.988c0 12.532 10.133 22.668 22.664 22.668 2.012.008 4.418-1.011 7.95-2.68 3.53-1.667 7.988-4.058 13.18-7.011 10.386-5.91 23.71-14.074 38.214-23.16 29.012-18.164 62.754-39.996 86.973-54.649l.027-.02.027-.015c4.16-2.773 6.622-5.789 6.622-9.187 0-3.395-2.461-6.41-6.622-9.188l-.062-.043-.066-.035c-24.2-12.828-56.614-32.012-84.97-48.047-14.179-8.015-27.343-15.246-37.987-20.515-5.325-2.633-10.016-4.778-13.915-6.29-3.902-1.515-6.957-2.421-9.328-2.488h-.02zm-.027 3c1.605.047 4.55.824 8.309 2.281 3.761 1.457 8.394 3.575 13.667 6.184 10.551 5.219 23.684 12.43 37.844 20.438 28.274 15.988 60.617 35.128 84.918 48.015 3.77 2.516 5.278 4.79 5.278 6.684 0 1.898-1.508 4.172-5.286 6.691-24.289 14.695-57.992 36.5-86.953 54.637-14.492 9.074-27.797 17.226-38.11 23.094-5.155 2.933-9.565 5.3-12.98 6.91-3.41 1.61-6.02 2.394-6.656 2.39h-.004a19.592 19.592 0 0 1-19.668-19.668V183.078a19.594 19.594 0 0 1 19.64-19.668zm0 0" fill="#212121"/></svg>
